server-network-outline.svg

<svg fill="currentColor" viewBox="0 0 24 24"><path d="M13 13v2h1c.6 0 1 .4 1 1h7v2h-7c0 .6-.4 1-1 1h-4c-.6 0-1-.4-1-1H2v-2h7c0-.6.4-1 1-1h1v-2H3.2c-.7 0-1.2-.7-1.2-1.6V6.6C2 5.7 2.5 5 3.2 5h17.6c.7 0 1.2.7 1.2 1.6v4.8c0 .9-.5 1.6-1.2 1.6zm-4-3V8h1v2zM5 8h2v2H5zm15-1H4v4h16z"/></svg>

<svg  viewBox="0 0 24 24" fill="currentColor"><path  d="M13 13V15H14C14.6 15 15 15.4 15 16H22V18H15C15 18.6 14.6 19 14 19H10C9.4 19 9 18.6 9 18H2V16H9C9 15.4 9.4 15 10 15H11V13H3.2C2.5 13 2 12.3 2 11.4V6.6C2 5.7 2.5 5 3.2 5H20.8C21.5 5 22 5.7 22 6.6V11.4C22 12.3 21.5 13 20.8 13H13M9 10V8H10V10H9M5 8H7V10H5V8M20 7H4V11H20V7Z"/></svg>
